img/security.svg

<svg width="35" height="37" viewBox="0 0 35 37" fill="none" xmlns="http://www.w3.org/2000/svg">
<path d="M34.4137 23.7174L26.2766 32.9563C25.1904 34.1866 23.6204 34.8926 21.9697 34.8932H9.71258L7.5839 37L0 29.6829L5.43615 24.3366C7.68798 22.1224 11.02 21.376 14.0157 22.4148L15.2136 22.8301H22.5533C23.1792 22.8298 23.7785 23.0807 24.2142 23.5254C24.6499 23.9702 24.8848 24.5707 24.8651 25.1899C24.7937 26.4474 23.7342 27.4261 22.4618 27.4099H18.048C17.7131 27.3883 17.3938 27.5529 17.2197 27.8369C17.0456 28.121 17.0456 28.4772 17.2197 28.7613C17.3938 29.0453 17.7131 29.2099 18.048 29.1883H22.4618C24.6998 29.191 26.5462 27.455 26.6581 25.2427C26.6581 25.2427 26.6581 25.205 26.6581 25.1861L30.7362 20.6554C31.5967 19.6672 33.0898 19.5226 34.1276 20.3269C34.6263 20.7348 34.9378 21.3244 34.9917 21.9625C35.0455 22.6006 34.8371 23.2333 34.4137 23.7174ZM31.2359 4.0087V4.4882C31.2359 5.01301 31.2359 5.55292 31.2588 6.13059C31.3084 8.67158 31.3618 11.6505 30.4958 14.4369C29.2945 18.2092 25.76 20.7745 21.7637 20.7745C17.7674 20.7745 14.2328 18.2092 13.0315 14.4369C12.1579 11.6543 12.2113 8.67913 12.2685 6.13059C12.2685 5.5567 12.2914 4.99791 12.2914 4.4882V4.0087C12.2914 3.61459 12.6142 3.2951 13.0124 3.2951H13.4969C16.6403 3.2951 18.9331 2.44182 20.9358 0.52758L21.2754 0.202877C21.5554 -0.0676258 22.0024 -0.0676258 22.2825 0.202877L22.622 0.52758C24.5943 2.44182 26.887 3.2951 30.038 3.2951H30.5225C30.9178 3.29924 31.2359 3.61752 31.2359 4.0087ZM26.0782 8.40728L25.1322 7.46338C24.8852 7.22052 24.4865 7.22052 24.2395 7.46338L20.6841 10.9823L19.2955 9.61548C19.046 9.37863 18.6522 9.37863 18.4028 9.61548L17.4491 10.5707C17.2037 10.8151 17.2037 11.2098 17.4491 11.4542L20.2301 14.2066C20.4771 14.4495 20.8758 14.4495 21.1228 14.2066L26.0821 9.29833C26.2018 9.1801 26.2687 9.01939 26.268 8.85202C26.2673 8.68464 26.199 8.5245 26.0782 8.40728Z" fill="#1EA01E"/>
</svg>

<svg width="35" height="37" fill="none" xmlns="http://www.w3.org/2000/svg"><path d="M34.414 23.717l-8.137 9.24a5.748 5.748 0 01-4.307 1.936H9.713L7.583 37 0 29.683l5.436-5.346a8.348 8.348 0 018.58-1.922l1.198.415h7.34c.625 0 1.225.25 1.66.695.436.445.67 1.046.651 1.665a2.366 2.366 0 01-2.403 2.22h-4.414a.903.903 0 00-.828.427.883.883 0 000 .924.903.903 0 00.828.427h4.414c2.238.003 4.084-1.733 4.196-3.945v-.057l4.078-4.53a2.486 2.486 0 013.392-.33 2.363 2.363 0 01.286 3.39zM31.236 4.01v.48c0 .524 0 1.064.023 1.642.05 2.54.103 5.52-.763 8.306-1.201 3.772-4.736 6.338-8.732 6.338-3.997 0-7.531-2.566-8.732-6.338-.874-2.783-.82-5.758-.764-8.306 0-.574.023-1.133.023-1.643v-.48c0-.393.323-.713.721-.713h.485c3.143 0 5.436-.853 7.439-2.767l.34-.325a.726.726 0 011.006 0l.34.325c1.972 1.914 4.265 2.767 7.416 2.767h.485a.717.717 0 01.713.714zm-5.158 4.398l-.946-.944a.638.638 0 00-.893 0l-3.555 3.52-1.389-1.368a.65.65 0 00-.892 0l-.954.956a.622.622 0 000 .883l2.781 2.753a.638.638 0 00.893 0l4.96-4.909a.624.624 0 00-.005-.89z" fill="#1EA01E"/></svg>
